X:1
T:Journey Through Sonic Landscapes
C:User
M:4/4
L:1/8
Q:1/4=120
K:C
%%staves {Voice1 Voice2}
V:Voice1 clef=treble
V:Voice2 clef=treble
[V:Voice1] z4 | c'4b4 ag| f4f2e2| d4c2B,2| C4D4| E4A4| B4 [1 z4 :|2 C4
w:Complex melodies and harmonies, exploration, innovation, emotional expression
w: Main theme development, varied throughout the piece, solo sections, improvisation
[V:Voice2] z4 | f'4d4 a4| g4g2f2 | e4d2c2 | B4G4| F4D4| C4 [1 z4 :|2 C4

% Change of tempo, encapsulating dynamic nature of progressive jazz
% Transition to more complex harmonic structures using non-functional harmony and substitutions
Q:1/4=160
K:Dm
[V:Voice1] z4 | f'4e'4 d'2c'2b4| a4a2g2 | f4e2d2| b4a4| g4c'2d'